web/public/images/3p-logos/nhost.svg

<svg viewBox="0 0 46 48" fill="none" xmlns="http://www.w3.org/2000/svg">
<g clip-path="url(#clip0_110_2281)">
<path d="M41.0088 10.2866L24.3152 0.647089C22.8174 -0.215696 20.9582 -0.215696 19.4574 0.647089C17.9597 1.51291 17.0301 3.12304 17.0301 4.85165V6.10937L15.9425 5.48051C14.4448 4.61772 12.5856 4.61772 11.0848 5.48051C9.58707 6.34633 8.65745 7.95646 8.65745 9.6881V10.9458L7.56985 10.317C6.07213 9.45418 4.21289 9.45418 2.71213 10.317C1.21441 11.1828 0.28479 12.7929 0.28479 14.5246V44.7281C0.28479 45.597 0.789091 46.4051 1.57289 46.7818C2.35364 47.1615 3.3015 47.0582 3.98201 46.5205L12.2605 39.9919L25.0261 47.362C25.3785 47.5656 25.7734 47.6658 26.1683 47.6658C26.5633 47.6658 26.9582 47.5625 27.3106 47.362C28.0154 46.9549 28.4529 46.1985 28.4529 45.3843V27.2081C28.4529 24.2248 26.8488 21.4481 24.2666 19.9565L20.0802 17.5382V4.85468C20.0802 4.21063 20.4266 3.60911 20.9855 3.28709C21.5445 2.96506 22.2372 2.96506 22.7962 3.28709L39.4899 12.9235C41.1334 13.8714 42.1542 15.6425 42.1542 17.5382V40.1711C42.1542 40.8152 41.8078 41.4167 41.2488 41.7387L36.8256 44.2937V22.3716C36.8256 19.3884 35.2215 16.6116 32.6392 15.12L22.3618 9.18684V12.7018L31.1172 17.757C32.7607 18.7048 33.7815 20.4729 33.7815 22.3716V45.6091C33.7815 46.4203 34.219 47.1797 34.9238 47.5868C35.2762 47.7904 35.6711 47.8906 36.0661 47.8906C36.461 47.8906 36.8559 47.7873 37.2083 47.5868L42.7739 44.3727C44.2716 43.5068 45.2012 41.8967 45.2012 40.1651V17.5322C45.1952 14.558 43.5911 11.7782 41.0088 10.2866ZM22.7385 22.5934C24.382 23.5413 25.4028 25.3094 25.4028 27.2081V44.0689L14.8306 37.9656L18.224 35.2921C19.3997 34.3656 20.0742 32.9772 20.0742 31.4795V21.0592L22.7385 22.5934ZM17.0301 19.2972V31.4734C17.0301 32.0324 16.778 32.5519 16.3405 32.8952L3.32884 43.1544V14.5215C3.32884 13.8775 3.67517 13.2759 4.23416 12.9539C4.79314 12.6319 5.4858 12.6319 6.04479 12.9539L8.65745 14.4608V36.0456L11.7015 33.6456V9.6881C11.7015 9.04405 12.0478 8.44253 12.6068 8.12051C13.1658 7.79848 13.8585 7.79848 14.4174 8.12051L17.0301 9.62734V15.7792L13.9861 14.0203V17.5382L17.0301 19.2972Z" fill="#0052CD"/>
</g>
<defs>
<clipPath id="clip0_110_2281">
<rect width="45" height="48" fill="white" transform="translate(0.28479)"/>
</clipPath>
</defs>
</svg>

<svg fill="none" viewBox="0 0 46 48" xmlns="http://www.w3.org/2000/svg"><clipPath id="a"><path d="M.285 0h45v48h-45z"/></clipPath><g clip-path="url(#a)"><path d="M41.009 10.287 24.315.647a4.882 4.882 0 0 0-4.858 0 4.87 4.87 0 0 0-2.427 4.205v1.257l-1.088-.628a4.882 4.882 0 0 0-4.857 0 4.87 4.87 0 0 0-2.428 4.207v1.258l-1.087-.629a4.882 4.882 0 0 0-4.858 0 4.87 4.87 0 0 0-2.427 4.208v30.203a2.29 2.29 0 0 0 1.288 2.054c.78.38 1.729.276 2.409-.261l8.279-6.53 12.765 7.371a2.28 2.28 0 0 0 1.142.304c.395 0 .79-.103 1.143-.304a2.289 2.289 0 0 0 1.142-1.978V27.208a8.396 8.396 0 0 0-4.186-7.251l-4.187-2.419V4.855c0-.644.347-1.246.905-1.568a1.818 1.818 0 0 1 1.811 0l16.694 9.637a5.344 5.344 0 0 1 2.664 4.614v22.633c0 .644-.346 1.246-.905 1.568l-4.423 2.555V22.372a8.396 8.396 0 0 0-4.187-7.252L22.362 9.187v3.515l8.755 5.055a5.34 5.34 0 0 1 2.664 4.615v23.237a2.281 2.281 0 0 0 2.285 2.282c.395 0 .79-.104 1.142-.304l5.566-3.214a4.871 4.871 0 0 0 2.427-4.208V17.532a8.416 8.416 0 0 0-4.192-7.245zm-18.27 12.306a5.34 5.34 0 0 1 2.664 4.615v16.86L14.83 37.967l3.393-2.674a4.825 4.825 0 0 0 1.85-3.812V21.06zm-5.709-3.296v12.176c0 .56-.252 1.079-.69 1.422L3.33 43.155V14.521c0-.644.346-1.246.905-1.568a1.818 1.818 0 0 1 1.81 0l2.613 1.507v21.585l3.045-2.4V9.688c0-.644.346-1.245.905-1.567a1.817 1.817 0 0 1 1.81 0l2.613 1.506v6.152l-3.044-1.759v3.518z" fill="#0052cd"/></g></svg>
